svg/set/M11/WM.svg

<?xml version="1.0" encoding="UTF-8" standalone="no"?>
<svg
   version="1.1"
   width="600"
   height="320.58008"
   id="svg1"
   xmlns="http://www.w3.org/2000/svg"
   xmlns:svg="http://www.w3.org/2000/svg">
  <defs
     id="defs1" />
  <path
     d="M 38.712891,0 C 29.808891,21.372 20.195922,42.563927 13.919922,64.919922 9.9839219,79.031922 5.3409688,93.048057 3.7929688,107.66406 2.7609687,116.85606 1.452,126.00053 0,135.14453 v 57.13086 c 1.872,7.644 3.0840625,15.46869 4.1640625,23.30469 1.788,13.5 6.1919215,26.38761 9.4199215,39.59961 7.32,22.27199 15.192453,44.53238 26.064454,65.40039 H 560.48438 c 8.09999,-16.416 14.99998,-33.41979 21.08398,-50.67578 3.852,-13.452 9.04786,-26.58 11.25586,-40.5 3.612,-14.808 4.69178,-30.09653 7.17578,-45.14453 v -54.64844 c -2.772,-12.384 -3.94725,-25.03118 -7.03125,-37.367189 C 587.38875,60.000141 573.51592,30.144 561.41992,0 Z m 21.828125,18.859375 c 3.204,0.01788 6.415,0.09822 9.625,0.07422 157.692004,-0.048 315.382504,0.0011 473.062504,-0.04687 1.644,0.048 3.28875,0.18899 4.96875,0.27539 4.452,10.74 9.42031,21.289818 13.32031,32.257813 3.516,12.048 8.66481,23.674578 10.63281,36.142578 2.952,10.404 4.27111,21.132524 6.28711,31.728524 1.77648,12.984 1.45102,26.1594 2.29102,39.1914 -0.936,16.824 -0.14221,33.8415 -3.65821,50.4375 -4.584,32.208 -16.45198,62.72378 -28.58398,92.67578 -165.66,0.0864 -331.32075,0.0864 -496.968752,0 -2.916,-7.368 -5.82,-14.67722 -9,-21.94922 -4.884,-14.75999 -11.447562,-29.05237 -14.351562,-44.48437 -2.484,-11.1 -5.292141,-22.16363 -6.744141,-33.51563 -1.74,-16.728 -1.739703,-33.59954 -1.595703,-50.43554 0.144,-16.584 0.984,-33.32482 4.5,-49.63282 3,-16.788004 8.760219,-32.95178 13.824219,-49.17578 3.468,-11.388005 9.706734,-21.708235 12.802734,-33.240235 3.186,-0.276 6.383891,-0.320614 9.587891,-0.302734 z m 8.316406,19.060547 c -1.692,0.048 -3.372453,0.275922 -5.064453,0.419922 -6.66,16.355995 -12.419547,33.095625 -17.435547,50.015625 -3.24,16.788001 -6.887328,33.612611 -8.111328,50.724611 -0.41952,14.952 -0.516777,29.85576 0.0957,44.75976 1.176,10.824 2.484531,21.75525 4.644531,32.53125 1.824,6.84 2.338719,14.11291 5.386719,20.62891 8.856,-8.532 14.196453,-19.92144 18.564453,-31.27344 8.292,-19.164 13.259766,-39.6 22.259766,-58.5 1.368,-2.808 4.080828,-5.61496 7.548828,-5.14648 5.339999,0.564 10.307709,2.95131 15.095709,5.19531 2.628,1.404 6.04803,3.14475 6.22851,6.46875 1.128,6.852 -3.93764,12.33481 -6.18164,18.38281 -3.192,8.292 -7.83472,15.98527 -9.88672,24.69727 -2.352,8.724 -5.953203,17.77034 -4.033203,26.90234 1.212,6.288 7.969563,8.40008 12.601563,11.58008 0.432,4.836 0.43171,9.7092 0.0957,14.5332 -10.116,-1.776 -20.532148,-1.82407 -30.744148,-1.08007 -8.868,1.272 -18.000234,2.8677 -25.740234,7.5957 2.676,8.772 6.047859,17.33941 9.755859,25.69141 4.728,1.30752 9.792063,0.42108 14.664062,0.60156 151.272001,0 302.483031,-0.0384 453.707031,0 1.692,-0.132 4.12752,0.0464 4.5,-2.10156 5.628,-14.352 11.676,-28.64342 15,-43.69141 1.872,-7.176 3.98521,-14.24475 5.53321,-21.46875 1.452,-6.744 1.69093,-13.73925 2.71093,-20.53125 0.948,-6.84 2.02,-13.69291 1.9336,-20.62891 -0.048,-16.548 0.88642,-33.22686 -2.01758,-49.63086 -1.128,-11.916 -3.9837,-23.53185 -6.0957,-35.255856 -3.42,-12.276 -7.82347,-24.180516 -11.85547,-36.228516 -1.836,-5.16 -3.46875,-10.464828 -6.46875,-15.048828 -155.58,-0.24 -311.11141,0.0014 -466.691411,-0.142578 z M 235.54883,54.935547 c 5.904,0.41952 11.48384,2.759391 17.33984,3.275391 8.436,0.803519 16.92142,0.803457 25.35742,0.335937 4.872,-0.288 9.37133,-2.434578 14.11133,-3.142578 4.212,1.968 7.91947,4.871766 11.85547,7.259765 -0.51648,6.24 -3.17984,12.142516 -2.33984,18.478516 1.128,9.42 3.09689,18.84187 7.21289,27.421872 6.432,12.744 14.06318,24.93532 19.36718,38.19532 6.984,16.92 15.22919,33.38318 20.61719,50.86718 2.628,8.244 3.09586,17.95169 9.75586,24.17969 6.096,5.352 13.1271,9.56445 19.8711,14.06445 2.82,1.968 5.86829,4.07947 7.40429,7.35547 -0.42048,4.64399 -2.80762,8.72499 -5.01562,12.70899 -10.68,-1.176 -20.80799,-5.43571 -31.58399,-6.09571 -16.692,-2.244 -33.98498,-2.38792 -50.20898,2.58008 -5.904,1.824 -10.82295,5.53208 -16.12695,8.58008 -4.356,-4.404 -8.76105,-8.85592 -12.37305,-13.91992 8.16,-8.01599 19.40512,-13.74069 23.95312,-24.80469 3.372,-9.468 -1.92014,-18.88762 -5.24414,-27.51562 -6.468,-17.904 -16.41682,-34.21246 -24.04883,-51.56446 -1.5,-2.712 -2.67495,-6.13087 -5.62695,-7.54687 -4.128,0.56352 -8.01623,4.27125 -12.24023,2.53125 -4.356,-2.808 -7.53622,-7.02075 -10.82422,-10.96875 -2.676,-3.048 -3.98331,-7.58272 -2.19531,-11.38672 2.484,-3.792 6.27464,-6.6123 8.80664,-10.4043 3.228,-4.74 6.4212,-9.564295 8.5332,-14.904295 1.128,-2.388 -0.37264,-4.873047 -2.16016,-6.373047 -7.128,-5.82 -16.0809,-8.771641 -23.6289,-13.93164 3,-5.148 6.33564,-10.163391 9.43164,-15.275391 z m 185.71289,1.919922 c -0.51648,16.92 0.1905,33.888588 -0.9375,50.808591 -0.192,16.5 0.1443,33.04771 -0.0957,49.59571 0.288,2.904 -2.19608,4.74075 -4.08008,6.46875 -6.696,5.82 -13.16302,11.91503 -18.79102,18.70703 -1.356,1.776 -3.23986,3.04837 -5.25586,3.98437 1.5,-30.564 1.64301,-61.17623 -0.22851,-91.740232 -0.048,-1.632001 -1.12717,-3.419391 -2.95117,-3.275391 -7.32,-0.61248 -14.62755,0.418656 -21.93555,-0.277344 -0.288,-3.384 -0.24083,-6.754953 -0.0488,-10.126953 6.18,-4.5 13.63125,-6.612688 20.53125,-9.804688 11.292,-4.679999 22.16497,-10.451843 33.79297,-14.339843 z m 86.99805,0.002 c -0.51648,16.92 0.19245,33.886635 -0.93555,50.806641 -0.192,16.5 0.1443,33.04771 -0.0957,49.59571 0.288,2.904 -2.19608,4.74075 -4.08008,6.46875 -6.696,5.82 -13.16302,11.91503 -18.79102,18.70703 -1.356,1.776 -3.24181,3.04837 -5.25781,3.98437 1.5,-30.564 1.64496,-61.17623 -0.22656,-91.740235 -0.048,-1.632001 -1.12718,-3.419391 -2.95117,-3.275391 -7.32,-0.61248 -14.62951,0.420609 -21.9375,-0.275391 C 453.69637,87.744906 453.7455,84.372 453.9375,81 c 6.18,-4.5 13.63125,-6.612687 20.53125,-9.804688 v 0.002 c 11.292,-4.68 22.16302,-10.451844 33.79102,-14.339844 z m -403.875,3.003906 c 6.32981,0.05807 12.64845,1.146219 18.93945,1.074219 13.644,0.37152 27.27705,-0.0462 40.87305,0.841797 1.128,9.336 6.04748,17.531859 11.77148,24.755859 10.212,13.72801 16.96739,29.9985 28.77539,42.5625 1.644,1.452 3.32378,3.37358 5.67578,3.51758 3.792,-1.32 6.98363,-4.17676 11.01563,-4.88476 4.728,0.384 7.63364,4.73993 10.68164,7.83593 3.048,3.744 7.69058,7.77524 6.14258,13.11524 -1.872,5.352 -7.08022,9.04914 -7.82422,14.86914 -1.08,9.324 -0.41787,18.98301 3.09765,27.79101 h -0.002 c 5.904,15.24 12.03584,30.70875 14.33984,46.96875 -5.016,2.724 -10.54626,4.356 -15.32226,7.5 -10.98,7.08 -19.50106,17.25572 -25.78906,28.59571 -5.676,-2.484 -11.33979,-5.11199 -16.17579,-9 -0.936,-2.064 -0.22739,-4.501 -0.27539,-6.70899 1.308,-14.436 -1.69229,-28.87161 -5.90429,-42.59961 -4.176,-13.224 -7.87141,-26.67593 -13.69141,-39.33593 -7.404,-17.532 -15.51667,-35.14822 -27.88867,-49.82422 -2.484,-2.16 -5.53224,-7.12749 -9.24024,-4.27149 -4.584,4.224 -4.67961,11.72416 -9.5996,15.66016 -6.38401,1.788 -11.99955,-2.48445 -17.43555,-5.06445 -3.756,-2.016 -9.192455,-4.63185 -8.064455,-9.83985 2.615995,-10.452 8.243925,-19.91909 10.919925,-30.371095 0.17952,-3.336 1.67933,-8.581203 -2.38868,-10.033203 -5.53199,-2.772 -11.999245,-2.85525 -17.531245,-5.53125 -2.304,-1.176 -2.53125,-4.128828 -1.03125,-6.048828 2.76,-4.032 5.615609,-8.291031 9.599609,-11.207031 2.111996,-0.291 4.222096,-0.386545 6.332036,-0.367188 z"
     id="path1" />
</svg>

<?xml version="1.0" encoding="UTF-8" standalone="no"?>
<svg xmlns="http://www.w3.org/2000/svg" version="1.1" width="600" height="320.57999">
  <path d="M 38.712891 0 C 29.808891 21.372 20.195922 42.563927 13.919922 64.919922 C 9.9839219 79.031922 5.3409688 93.048057 3.7929688 107.66406 C 2.7609687 116.85606 1.452 126.00053 0 135.14453 L 0 192.27539 C 1.872 199.91939 3.0840625 207.74408 4.1640625 215.58008 C 5.9520625 229.08008 10.355984 241.96769 13.583984 255.17969 C 20.903984 277.45168 28.776437 299.71207 39.648438 320.58008 L 560.48438 320.58008 C 568.58437 304.16408 575.48436 287.16029 581.56836 269.9043 C 585.42036 256.4523 590.61622 243.3243 592.82422 229.4043 C 596.43622 214.5963 597.516 199.30777 600 184.25977 L 600 129.61133 C 597.228 117.22733 596.05275 104.58015 592.96875 92.244141 C 587.38875 60.000141 573.51592 30.144 561.41992 0 L 38.712891 0 z M 60.541016 18.859375 C 63.745016 18.877255 66.956016 18.957594 70.166016 18.933594 C 227.85802 18.885594 385.54852 18.934719 543.22852 18.886719 C 544.87252 18.934719 546.51727 19.075709 548.19727 19.162109 C 552.64927 29.902109 557.61758 40.451927 561.51758 51.419922 C 565.03358 63.467922 570.18239 75.0945 572.15039 87.5625 C 575.10239 97.9665 576.4215 108.69502 578.4375 119.29102 C 580.21398 132.27502 579.88852 145.45042 580.72852 158.48242 C 579.79252 175.30642 580.58631 192.32392 577.07031 208.91992 C 572.48631 241.12792 560.61833 271.6437 548.48633 301.5957 C 382.82633 301.6821 217.16558 301.6821 51.517578 301.5957 C 48.601578 294.2277 45.697578 286.91848 42.517578 279.64648 C 37.633578 264.88649 31.070016 250.59411 28.166016 235.16211 C 25.682016 224.06211 22.873875 212.99848 21.421875 201.64648 C 19.681875 184.91848 19.682172 168.04694 19.826172 151.21094 C 19.970172 134.62694 20.810172 117.88612 24.326172 101.57812 C 27.326172 84.79012 33.086391 68.626344 38.150391 52.402344 C 41.618391 41.014339 47.857125 30.694109 50.953125 19.162109 C 54.139125 18.886109 57.337016 18.841495 60.541016 18.859375 z M 68.857422 37.919922 C 67.165422 37.967922 65.484969 38.195844 63.792969 38.339844 C 57.132969 54.695839 51.373422 71.435469 46.357422 88.355469 C 43.117422 105.14347 39.470094 121.96808 38.246094 139.08008 C 37.826574 154.03208 37.729317 168.93584 38.341797 183.83984 C 39.517797 194.66384 40.826328 205.59509 42.986328 216.37109 C 44.810328 223.21109 45.325047 230.484 48.373047 237 C 57.229047 228.468 62.5695 217.07856 66.9375 205.72656 C 75.2295 186.56256 80.197266 166.12656 89.197266 147.22656 C 90.565266 144.41856 93.278094 141.6116 96.746094 142.08008 C 102.08609 142.64408 107.0538 145.03139 111.8418 147.27539 C 114.4698 148.67939 117.88983 150.42014 118.07031 153.74414 C 119.19831 160.59614 114.13267 166.07895 111.88867 172.12695 C 108.69667 180.41895 104.05395 188.11222 102.00195 196.82422 C 99.649953 205.54822 96.04875 214.59456 97.96875 223.72656 C 99.18075 230.01456 105.93831 232.12664 110.57031 235.30664 C 111.00231 240.14264 111.00202 245.01584 110.66602 249.83984 C 100.55002 248.06384 90.133875 248.01577 79.921875 248.75977 C 71.053875 250.03177 61.921641 251.62747 54.181641 256.35547 C 56.857641 265.12747 60.2295 273.69488 63.9375 282.04688 C 68.6655 283.3544 73.729563 282.46796 78.601562 282.64844 C 229.87356 282.64844 381.08459 282.61004 532.30859 282.64844 C 534.00059 282.51644 536.43611 282.69488 536.80859 280.54688 C 542.43659 266.19488 548.48459 251.90346 551.80859 236.85547 C 553.68059 229.67947 555.7938 222.61072 557.3418 215.38672 C 558.7938 208.64272 559.03273 201.64747 560.05273 194.85547 C 561.00073 188.01547 562.07273 181.16256 561.98633 174.22656 C 561.93833 157.67856 562.87275 140.9997 559.96875 124.5957 C 558.84075 112.6797 555.98505 101.06385 553.87305 89.339844 C 550.45305 77.063844 546.04958 65.159328 542.01758 53.111328 C 540.18158 47.951328 538.54883 42.6465 535.54883 38.0625 C 379.96883 37.8225 224.43742 38.063922 68.857422 37.919922 z M 235.54883 54.935547 C 241.45283 55.355067 247.03267 57.694938 252.88867 58.210938 C 261.32467 59.014457 269.81009 59.014395 278.24609 58.546875 C 283.11809 58.258875 287.61742 56.112297 292.35742 55.404297 C 296.56942 57.372297 300.27689 60.276063 304.21289 62.664062 C 303.69641 68.904062 301.03305 74.806578 301.87305 81.142578 C 303.00105 90.562578 304.96994 99.984448 309.08594 108.56445 C 315.51794 121.30845 323.14912 133.49977 328.45312 146.75977 C 335.43712 163.67977 343.68231 180.14295 349.07031 197.62695 C 351.69831 205.87095 352.16617 215.57864 358.82617 221.80664 C 364.92217 227.15864 371.95327 231.37109 378.69727 235.87109 C 381.51727 237.83909 384.56556 239.95056 386.10156 243.22656 C 385.68108 247.87055 383.29394 251.95155 381.08594 255.93555 C 370.40594 254.75955 360.27795 250.49984 349.50195 249.83984 C 332.80995 247.59584 315.51697 247.45192 299.29297 252.41992 C 293.38897 254.24392 288.47002 257.952 283.16602 261 C 278.81002 256.596 274.40497 252.14408 270.79297 247.08008 C 278.95297 239.06409 290.19809 233.33939 294.74609 222.27539 C 298.11809 212.80739 292.82595 203.38777 289.50195 194.75977 C 283.03395 176.85577 273.08513 160.54731 265.45312 143.19531 C 263.95312 140.48331 262.77817 137.06444 259.82617 135.64844 C 255.69817 136.21196 251.80994 139.91969 247.58594 138.17969 C 243.22994 135.37169 240.04972 131.15894 236.76172 127.21094 C 234.08572 124.16294 232.77841 119.62822 234.56641 115.82422 C 237.05041 112.03222 240.84105 109.21192 243.37305 105.41992 C 246.60105 100.67992 249.79425 95.855625 251.90625 90.515625 C 253.03425 88.127625 251.53361 85.642578 249.74609 84.142578 C 242.61809 78.322578 233.66519 75.370937 226.11719 70.210938 C 229.11719 65.062938 232.45283 60.047547 235.54883 54.935547 z M 421.26172 56.855469 C 420.74524 73.775469 421.45222 90.744057 420.32422 107.66406 C 420.13222 124.16406 420.46852 140.71177 420.22852 157.25977 C 420.51652 160.16377 418.03244 162.00052 416.14844 163.72852 C 409.45244 169.54852 402.98542 175.64355 397.35742 182.43555 C 396.00142 184.21155 394.11756 185.48392 392.10156 186.41992 C 393.60156 155.85592 393.74457 125.24369 391.87305 94.679688 C 391.82505 93.047687 390.74588 91.260297 388.92188 91.404297 C 381.60188 90.791817 374.29433 91.822953 366.98633 91.126953 C 366.69833 87.742953 366.7455 84.372 366.9375 81 C 373.1175 76.5 380.56875 74.387312 387.46875 71.195312 C 398.76075 66.515313 409.63372 60.743469 421.26172 56.855469 z M 508.25977 56.857422 C 507.74329 73.777422 508.45222 90.744057 507.32422 107.66406 C 507.13222 124.16406 507.46852 140.71177 507.22852 157.25977 C 507.51652 160.16377 505.03244 162.00052 503.14844 163.72852 C 496.45244 169.54852 489.98542 175.64355 484.35742 182.43555 C 483.00142 184.21155 481.11561 185.48392 479.09961 186.41992 C 480.59961 155.85592 480.74457 125.24369 478.87305 94.679688 C 478.82505 93.047687 477.74587 91.260297 475.92188 91.404297 C 468.60188 90.791817 461.29237 91.824906 453.98438 91.128906 C 453.69637 87.744906 453.7455 84.372 453.9375 81 C 460.1175 76.5 467.56875 74.387313 474.46875 71.195312 L 474.46875 71.197266 C 485.76075 66.517266 496.63177 60.745422 508.25977 56.857422 z M 104.38477 59.861328 C 110.71458 59.919401 117.03322 61.007547 123.32422 60.935547 C 136.96822 61.307067 150.60127 60.889344 164.19727 61.777344 C 165.32527 71.113344 170.24475 79.309203 175.96875 86.533203 C 186.18075 100.26121 192.93614 116.5317 204.74414 129.0957 C 206.38814 130.5477 208.06792 132.46928 210.41992 132.61328 C 214.21192 131.29328 217.40355 128.43652 221.43555 127.72852 C 226.16355 128.11252 229.06919 132.46845 232.11719 135.56445 C 235.16519 139.30845 239.80777 143.33969 238.25977 148.67969 C 236.38777 154.03169 231.17955 157.72883 230.43555 163.54883 C 229.35555 172.87283 230.01768 182.53184 233.5332 191.33984 L 233.53125 191.33984 C 239.43525 206.57984 245.56709 222.04859 247.87109 238.30859 C 242.85509 241.03259 237.32483 242.66459 232.54883 245.80859 C 221.56883 252.88859 213.04777 263.06431 206.75977 274.4043 C 201.08377 271.9203 195.41998 269.29231 190.58398 265.4043 C 189.64798 263.3403 190.35659 260.9033 190.30859 258.69531 C 191.61659 244.25931 188.6163 229.8237 184.4043 216.0957 C 180.2283 202.8717 176.53289 189.41977 170.71289 176.75977 C 163.30889 159.22777 155.19622 141.61155 142.82422 126.93555 C 140.34022 124.77555 137.29198 119.80806 133.58398 122.66406 C 128.99998 126.88806 128.90437 134.38822 123.98438 138.32422 C 117.60037 140.11222 111.98483 135.83977 106.54883 133.25977 C 102.79283 131.24377 97.356375 128.62792 98.484375 123.41992 C 101.10037 112.96792 106.7283 103.50083 109.4043 93.048828 C 109.58382 89.712828 111.08363 84.467625 107.01562 83.015625 C 101.48363 80.243625 95.016375 80.160375 89.484375 77.484375 C 87.180375 76.308375 86.953125 73.355547 88.453125 71.435547 C 91.213125 67.403547 94.068734 63.144516 98.052734 60.228516 C 100.16473 59.937516 102.27483 59.841971 104.38477 59.861328 z "/></svg>
